X: 9235
T: Dan Cronin's
R: slide
M: 12/8
K: Gmajor
GAB D2E G2A B2G|A2G B2G A2G E3|
GAB D2E G2A B2G|d2B ABA G3G3:|
g3 g3 e2d e3|ged BAG A2G E3|
g3 g3 e2d e3|ega ged e3 e2f|
g3 g3 e2d B2G|A2G B2G A2G E3|
GAB D2E G2A B2G|d2B ABA G3G3||

